dist/svg/u1F1E9.svg

<svg id="Layer_1" data-name="Layer 1" xmlns="http://www.w3.org/2000/svg" viewBox="0 0 40 40"><defs><style>.cls-1{fill:#afb7c0;}.cls-2{fill:none;}</style></defs><path class="cls-1" d="M28.5,7.1a4.405,4.405,0,0,1,4.4,4.4v17a4.405,4.405,0,0,1-4.4,4.4h-17a4.405,4.405,0,0,1-4.4-4.4v-17a4.405,4.405,0,0,1,4.4-4.4h17m0-3.6h-17a8,8,0,0,0-8,8v17a8,8,0,0,0,8,8h17a8,8,0,0,0,8-8v-17a8,8,0,0,0-8-8Z"/><path class="cls-1" d="M28.222,20.08c0,5.88-4.008,8.929-8.761,8.929h-6.84V11.1h6.84C24.214,11.1,28.222,14.151,28.222,20.08Zm-8.977,5.736c2.616,0,5.017-1.416,5.017-5.736,0-4.344-2.4-5.785-5.017-5.785H16.461V25.816Z"/><rect class="cls-2" width="40" height="40"/></svg>

<?xml version="1.0" encoding="UTF-8"?><svg id="a" xmlns="http://www.w3.org/2000/svg" viewBox="0 0 40 40"><g><path d="M28.5,3.5H11.5C7.082,3.5,3.5,7.082,3.5,11.5V28.5c0,4.418,3.582,8,8,8H28.5c4.418,0,8-3.582,8-8V11.5c0-4.418-3.582-8-8-8Zm4.4,25c0,2.426-1.974,4.4-4.4,4.4H11.5c-2.426,0-4.4-1.974-4.4-4.4V11.5c0-2.426,1.974-4.4,4.4-4.4H28.5c2.426,0,4.4,1.974,4.4,4.4V28.5Z" fill="#afb7c0"/><path d="M19.461,11.103h-6.84V29.009h6.84c4.753,0,8.761-3.048,8.761-8.929,0-5.929-4.008-8.977-8.761-8.977Zm-.216,14.713h-2.784V14.295h2.784c2.616,0,5.017,1.44,5.017,5.785,0,4.32-2.4,5.736-5.017,5.736Z" fill="#afb7c0"/></g><rect width="40" height="40" fill="none"/></svg>
